images/other-seat1.svg

<svg width="119" height="76" viewBox="0 0 119 76" fill="none" xmlns="http://www.w3.org/2000/svg">
<path fill-rule="evenodd" clip-rule="evenodd" d="M5.33418 48.5282C11.14 49.2139 25.7602 48.1533 32.2869 48.5602C36.606 48.8294 40.8546 48.3359 45.4236 48.4449C59.1338 48.7749 73.4785 48.6083 87.2464 48.6083L113.065 48.525C112.049 44.5199 111.633 42.6455 109.322 39.7234C96.7625 23.8344 77.7431 42.2226 63.972 20.8898C60.5052 15.5166 60.4891 11.8095 53.123 6.13826C35.6031 -7.3509 10.8196 2.65863 6.12558 23.828C4.74783 30.0439 5.23485 41.4696 5.33097 48.5282H5.33418Z" fill="white"/>
<path fill-rule="evenodd" clip-rule="evenodd" d="M3.38603 64.8113H115.564C119.386 64.8113 118.662 61.6329 118.662 57.2209C118.662 53.6419 116.589 53.9655 113.404 53.972H19.8325C-0.0199057 53.972 0.0153396 52.0719 0.00252331 59.6496C-0.00388485 62.937 -0.15768 64.8113 3.38282 64.8113H3.38603Z" fill="white"/>
<path fill-rule="evenodd" clip-rule="evenodd" d="M113.257 70.3095C111.85 69.8609 109.313 70.1076 107.743 70.1333C107.743 72.9176 107.567 75.5225 110.437 75.5834C113.363 75.6443 113.372 73.1002 113.257 70.3095Z" fill="white"/>
<path fill-rule="evenodd" clip-rule="evenodd" d="M10.7777 70.114L5.35004 70.1493C5.26353 72.7766 5.17702 75.4905 7.97417 75.5834C10.9668 75.6827 10.8322 72.9528 10.7777 70.114Z" fill="white"/>
</svg>

<svg width="119" height="76" fill="none" xmlns="http://www.w3.org/2000/svg"><path fill-rule="evenodd" clip-rule="evenodd" d="M5.334 48.528c5.806.686 20.426-.375 26.953.032 4.319.27 8.568-.224 13.137-.115 13.71.33 28.054.163 41.822.163l25.819-.083c-1.016-4.005-1.432-5.88-3.743-8.802-12.56-15.889-31.579 2.5-45.35-18.833-3.467-5.373-3.483-9.08-10.849-14.752C35.603-7.35 10.82 2.658 6.126 23.828c-1.378 6.216-.891 17.642-.795 24.7h.003zM3.386 64.811h112.178c3.822 0 3.098-3.178 3.098-7.59 0-3.58-2.073-3.255-5.258-3.249H19.832c-19.852 0-19.817-1.9-19.83 5.678-.006 3.287-.16 5.161 3.38 5.161h.004zm109.871 5.499c-1.407-.45-3.944-.202-5.514-.177 0 2.785-.176 5.39 2.694 5.45 2.926.061 2.935-2.483 2.82-5.273zm-102.479-.196l-5.428.035c-.086 2.628-.173 5.341 2.624 5.434 2.993.1 2.858-2.63 2.804-5.469z" fill="#fff"/></svg>
